X:442
T: Songlang songdao dalushang
N: C2059
O: China, Anhui Dangshan
S: III, 556, 2)]
R: Xiaodiao, Qingge]
M: 2/4
L: 1/16
K: A
b2f2b2f2 | e4c4 |
c2c2e2c2 | c4b4 |
b2b2f2b2 | g2f2e4 |
f2f2f2f2 | e2f2a4 | a8

